!!!!SEGMENT: pl-kk--kk-i-111--017-002_anonim--deo-gratias-ad-adventu-domini-2.krn
!!!cenid: 18xx:2592
!!!COM: Anonim
!!!COM-rismid: pe30004985
!!!CDT:
!!!CNT:
!!!GTL: Deo gratias
!!!OTL: Ad Adventu Domini 2
!!!OMV: 002
!!!PDT: 1824
!!!AGN: Sacred
!!!SMS-siglum: PL-Kk
!!!SMS-shelfmark: Kk.I.111
!!!SMS-shelfwork: 017-002 G
!!!SMS-variant:
!!!SMS-altvar:
!!!NIFC-rismid: 1001157708
!!!URL-scan: http://repozytorium.nifc.pl/skany/pl-kk-nut--i-111
!!!ONB-nifc: UWAGA: A, T1, T2. Podział na poszególne Deo gratias. A: skan 0005 (m.in)
!!!AIN: 1 alto 2 tenor
!!!key:
**kern	**text	**kern	**text	**kern	**text
*part3	*part3	*part2	*part2	*part1	*part1
*staff3	*staff3	*staff2	*staff2	*staff1	*staff1
*Itenor	*	*Itenor	*	*Ialto	*
*I"Tenore Vagante.	*	*I"Tenore Chorale.	*	*I"Alto.	*
*I'T 2	*	*I'T 1	*	*I'A	*
*clefC4	*	*clefC4	*	*clefC3	*
*k[b-]	*	*k[b-]	*	*k[b-]	*
*F:	*	*F:	*	*F:	*
*M2/1	*	*M2/1	*	*M2/1	*
*met(C|)	*	*met(C|)	*	*met(C|)	*
=1-	=1-	=1-	=1-	=1-	=1-
!	!	!	!	!LO:TX:t=P:problem=kreska pseudotaktowa	!
!LO:TX:t=P:problem=kreska pseudotaktowa	!	!LO:TX:t=P:problem=kreska pseudotaktowa	!	!LO:TX:a:t=1	!
[1A	De-	1F	De-	1r	.
*2\right	*	*	*	*	*
!	!	!LO:TX:t=P:problem=kreska pseudotaktowa	!	!LO:TX:t=P:problem=kreska pseudotaktowa	!
2A]	.	1D	-o	1f	De-
!LO:TX:t=P:problem=kreska pseudotaktowa	!	!	!	!	!
[2B-\	-o	.	.	.	.
=2-	=2-	=2-	=2-	=2-	=2-
!	!	!LO:TX:t=P:problem=kreska pseudotaktowa	!	!	!
2B-]	.	1F	.	1.d	-o
!LO:TX:t=P:problem=kreska pseudotaktowa	!	!	!	!	!
2d\	.	.	.	.	.
!	!	!LO:TX:t=P:problem=kreska pseudotaktowa	!	!	!
2d\	gra-	1G	.	.	.
*	*	*	*	*2\right	*
!LO:TX:t=P:problem=kreska pseudotaktowa	!	!	!	!LO:TX:t=P:problem=kreska pseudotaktowa	!
2c\	-ti-	.	.	2e\	.
=3-	=3-	=3-	=3-	=3-	=3-
!	!	!LO:TX:t=P:problem=kreska pseudotaktowa	!	!LO:TX:t=P:problem=kreska pseudotaktowa	!
2c\	-as	1A	.	1f	gra-
!LO:TX:t=P:problem=kreska pseudotaktowa	!	!	!	!	!
2c\	De-	.	.	.	.
!	!	!LO:TX:t=P:problem=kreska pseudotaktowa	!	!LO:TX:t=P:problem=kreska pseudotaktowa	!
2d\	-o	1B-X	gra-	1g	.
!LO:TX:t=P:problem=kreska pseudotaktowa	!	!	!	!	!
2e-X\	.	.	.	.	.
=4-	=4-	=4-	=4-	=4-	=4-
!	!	!LO:TX:t=P:problem=kreska pseudotaktowa	!	!LO:TX:t=P:problem=kreska pseudotaktowa	!
2c\	gra-	1A	.	1f	.
!LO:TX:t=P:problem=kreska pseudotaktowa	!	!	!	!	!
2d\	.	.	.	.	.
!	!	!LO:TX:t=P:problem=kreska pseudotaktowa	!	!LO:TX:t=P:problem=kreska pseudotaktowa	!
2B-\	.	1G	.	1e	.
!LO:TX:t=P:problem=kreska pseudotaktowa	!	!	!	!	!
2c\	.	.	.	.	.
=5-	=5-	=5-	=5-	=5-	=5-
!	!	!LO:TX:t=P:problem=kreska pseudotaktowa	!	!LO:TX:t=P:problem=kreska pseudotaktowa	!
2A\	.	1F	.	1d	.
1B-	.	.	.	.	.
!	!	!LO:TX:t=P:problem=kreska pseudotaktowa	!	!	!
.	.	1D	.	2f\	.
!LO:TX:t=P:problem=kreska pseudotaktowa	!	!	!	!	!
2d\	.	.	.	1g\	.
=6-	=6-	=6-	=6-	=6-	=6-
1.c	.	1.E	.	.	.
!	!	!	!	!LO:TX:t=P:problem=kreska pseudotaktowa	!
.	.	.	.	2a\	.
.	.	.	.	2.g\	.
!LO:TX:t=P:problem=kreska pseudotaktowa	!	!LO:TX:t=P:problem=kreska pseudotaktowa	!	!	!
2c\	-ti-	2E/	-ti-	.	.
!	!	!	!	!LO:TX:t=P:problem=kreska pseudotaktowa	!
.	.	.	.	4g\	-ti-
=7-	=7-	=7-	=7-	=7-	=7-
0cl;	-as.	0Fl;	-as.	0al;	-as.
==	==	==	==	==	==
*-	*-	*-	*-	*-	*-
!!!system-decoration: [(s1,s2,s3)]
!!!RDF**kern: l = terminal long
!!!ENC: Andrzej Kubiczek
!!!END: 2021-08-05
!!!ENC: Krzysztof Stępień
!!!END: 2021-07-12
